public/favicon.svg

<svg width="16" height="16" viewBox="0 0 16 16" fill="none" xmlns="http://www.w3.org/2000/svg">
    <path
        d="M10.855 3.60423L10.593 3.55701C9.57285 3.3716 8.31643 3.65721 7.53731 4.25262L5.07479 6.13099C4.34363 6.68955 3.76222 7.4531 3.48028 8.22587C3.27205 8.79825 3.1305 9.63436 3.64055 10.3691L3.89558 10.7365C4.40212 11.4667 5.22687 11.8444 6.21773 11.8006C7.74321 11.7338 9.2839 10.7158 10.1426 9.20709L12.2635 5.48145C12.4565 5.14286 12.4823 4.82039 12.3407 4.52096C12.1301 4.07872 11.5745 3.73437 10.855 3.60423Z"
        fill="#A408FF" />
    <path
        d="M7.93848 15.974L15.9987 16.0005V5.86816L12.8109 11.4676C11.6691 13.4749 9.91903 15.0734 7.93848 15.974Z"
        fill="#A408FF" />
    <path
        d="M2.00395 4.58133L6.62134 1.05723C7.19222 0.620748 7.88477 0.264883 8.63347 0H0V6.6002C0.568546 5.84586 1.25057 5.15601 2.00395 4.58133Z"
        fill="#A408FF" />
    <path d="M0 14.9043V15.9489L1.25291 15.9535C0.787307 15.6713 0.366162 15.3212 0 14.9043Z"
        fill="#A408FF" />
    <path d="M14.7039 0C15.1952 0.188873 15.6327 0.434178 15.9989 0.722095V0H14.7039Z"
        fill="#A408FF" />
    <path
        d="M13.4029 0.40552L12.9128 0.31569C10.9673 -0.0378717 8.56913 0.508018 7.08109 1.64471L2.46253 5.16996C1.45646 5.93697 0.600132 6.91013 0 7.94778V13.6554L0.224611 13.9791C0.975653 15.0605 2.08935 15.7411 3.42882 15.9588L5.3813 15.9657C8.05089 15.5891 10.655 13.7418 12.1571 11.1033L16 4.35343V1.75642C15.4747 1.10458 14.5447 0.613972 13.4029 0.40552ZM14.5634 5.28168L11.5464 10.5805C10.4245 12.5521 8.53287 14.0044 6.4868 14.4651C6.12298 14.5468 5.75682 14.5964 5.39768 14.6125C5.31345 14.6159 5.22922 14.6182 5.14616 14.6182C3.6043 14.6182 2.3163 13.9802 1.49974 12.8067L1.13592 12.2838C-0.362653 10.1244 1.07041 7.05639 3.32354 5.33696L6.82723 2.66279C8.07896 1.70805 10.0888 1.24739 11.716 1.54452L12.088 1.61247C13.3281 1.83819 14.3026 2.46815 14.6968 3.29851C14.9916 3.92271 14.946 4.6091 14.5634 5.28168Z"
        fill="#A408FF" />
    <path
        d="M11.9781 2.19642L11.6061 2.12847C11.3054 2.07434 10.9919 2.04785 10.6714 2.04785C9.42315 2.04785 8.08952 2.44863 7.19342 3.13387L3.68973 5.80689C2.63686 6.6096 1.80042 7.70944 1.39449 8.82426C1.0915 9.65576 0.885603 10.8731 1.63197 11.9464L1.99579 12.4693C2.73396 13.5323 3.93189 14.0816 5.37197 14.0183C7.57011 13.9215 9.78814 12.4566 11.0235 10.288L14.0405 4.98921C14.3248 4.49054 14.3634 3.99302 14.1528 3.54847C13.8405 2.89317 13.0274 2.38759 11.9781 2.19642ZM12.7338 5.74585L10.6129 9.47034C9.81622 10.8696 8.47206 11.9015 7.01794 12.2297C6.75941 12.2885 6.49853 12.323 6.24233 12.3345C6.1815 12.3368 6.12184 12.338 6.06218 12.338C4.95784 12.338 4.036 11.8808 3.45108 11.0389L3.19605 10.6715C2.12213 9.12484 3.14107 6.93437 4.74493 5.709L7.20863 3.82833C8.10005 3.14769 9.53311 2.81947 10.6924 3.03022L10.9545 3.07744C11.8447 3.23983 12.5466 3.69473 12.8309 4.29475C13.0462 4.75427 13.0122 5.25524 12.7338 5.74585Z"
        fill="#A408FF" />
</svg>

<svg xmlns="http://www.w3.org/2000/svg" width="16" height="16" fill="none"><path fill="#A408FF" d="m10.855 3.604-.262-.048c-1.02-.186-2.276.1-3.056.695L5.074 6.13c-.73.558-1.312 1.322-1.594 2.096-.21.572-.35 1.41.16 2.144l.256.367c.506.73 1.33 1.108 2.322 1.065 1.526-.068 3.066-1.085 3.924-2.594l2.12-3.724c.193-.338.22-.661.078-.96-.21-.446-.765-.79-1.485-.921Z"/><path fill="#A408FF" d="m13.403.405-.49-.089C10.968-.039 8.569.508 7.08 1.644L2.462 5.169A9.602 9.602 0 0 0 0 7.947v5.708l.224.324c.752 1.082 1.865 1.763 3.205 1.98l1.953.007c2.67-.377 5.273-2.225 6.776-4.862L16 4.353V1.756c-.524-.651-1.455-1.142-2.597-1.35Zm1.16 4.876-3.016 5.298c-1.123 1.971-3.014 3.425-5.06 3.886-.363.081-.73.132-1.089.147-.085.003-.169.006-.252.006-1.542 0-2.83-.637-3.646-1.811l-.363-.523c-1.5-2.158-.067-5.227 2.186-6.946l3.504-2.674c1.252-.954 3.262-1.415 4.888-1.119l.372.068c1.24.226 2.215.856 2.608 1.686.297.624.251 1.309-.131 1.982Z"/><path fill="#A408FF" d="m11.978 2.195-.371-.068a5.168 5.168 0 0 0-.934-.081c-1.249 0-2.582.4-3.478 1.085L3.69 5.804c-1.053.804-1.889 1.903-2.296 3.018-.303.831-.508 2.048.238 3.122l.364.523c.737 1.061 1.936 1.612 3.376 1.549 2.198-.097 4.416-1.562 5.651-3.731l3.017-5.3c.284-.498.322-.997.111-1.441-.312-.651-1.124-1.159-2.174-1.35Zm.756 3.55-2.121 3.724c-.797 1.4-2.141 2.43-3.596 2.76a4.372 4.372 0 0 1-.955.109c-1.105 0-2.027-.458-2.612-1.299l-.255-.368c-1.073-1.546-.055-3.737 1.55-4.962l2.463-1.88c.893-.681 2.324-1.009 3.483-.798l.262.047c.89.163 1.593.618 1.877 1.217.215.458.183.96-.096 1.45Z"/></svg>
